assets/img/tabpanel.svg

<svg height="84" viewBox="0 0 84 84" width="84" xmlns="http://www.w3.org/2000/svg" xmlns:xlink="http://www.w3.org/1999/xlink"><filter id="a" filterUnits="userSpaceOnUse" height="67" width="85" x="-.5" y="8.5"><feOffset/><feGaussianBlur result="blur" stdDeviation="2.5"/><feFlood flood-color="#aac7e5"/><feComposite in2="blur" operator="in"/><feComposite in="SourceGraphic"/></filter><clipPath id="b"><path d="m0 0h84v84h-84z"/></clipPath><g clip-path="url(#b)"><path d="m0 0h84v84h-84z" fill="#fff"/><path d="m3 14.333h78a3 3 0 0 1 3 3v78a3 3 0 0 1 -3 3h-78a3 3 0 0 1 -3-3v-78a3 3 0 0 1 3-3z" fill="#d0e0f0" transform="translate(0 -14.333)"/><g filter="url(#a)"><path d="m3 52a3 3 0 0 1 -3-3v-46a3 3 0 0 1 3-3h14a3 3 0 0 1 3 3v8h50v38a3 3 0 0 1 -3 3z" fill="#fff" transform="translate(7 16)"/></g><g fill="#185a69"><path d="m3 0h14a3 3 0 0 1 3 3v8a0 0 0 0 1 0 0h-20a0 0 0 0 1 0 0v-8a3 3 0 0 1 3-3z" transform="translate(33 16)"/><path d="m3 0h14a3 3 0 0 1 3 3v8a0 0 0 0 1 0 0h-20a0 0 0 0 1 0 0v-8a3 3 0 0 1 3-3z" transform="translate(57 16)"/></g></g></svg>

<svg xmlns="http://www.w3.org/2000/svg" xmlns:xlink="http://www.w3.org/1999/xlink" width="84" height="84" viewBox="0 0 84 84">
  <defs>
    <filter id="Union_32" x="-0.5" y="8.5" width="85" height="67" filterUnits="userSpaceOnUse">
      <feOffset input="SourceAlpha"/>
      <feGaussianBlur stdDeviation="2.5" result="blur"/>
      <feFlood flood-color="#aac7e5"/>
      <feComposite operator="in" in2="blur"/>
      <feComposite in="SourceGraphic"/>
    </filter>
    <clipPath id="clip-tabpanel">
      <rect width="84" height="84"/>
    </clipPath>
  </defs>
  <g id="tabpanel" clip-path="url(#clip-tabpanel)">
    <rect width="84" height="84" fill="#fff"/>
    <g id="Group_296" data-name="Group 296" transform="translate(-782 -573)">
      <path id="Union_8" data-name="Union 8" d="M3,14.333H81a3,3,0,0,1,3,3v78a3,3,0,0,1-3,3H3a3,3,0,0,1-3-3v-78A3,3,0,0,1,3,14.333Z" transform="translate(782 558.667)" fill="#d0e0f0"/>
      <g transform="matrix(1, 0, 0, 1, 782, 573)" filter="url(#Union_32)">
        <path id="Union_32-2" data-name="Union 32" d="M3,52a3,3,0,0,1-3-3V3A3,3,0,0,1,3,0H17a3,3,0,0,1,3,3v8H70V49a3,3,0,0,1-3,3Z" transform="translate(7 16)" fill="#fff"/>
      </g>
      <path id="Rectangle_602" data-name="Rectangle 602" d="M3,0H17a3,3,0,0,1,3,3v8a0,0,0,0,1,0,0H0a0,0,0,0,1,0,0V3A3,3,0,0,1,3,0Z" transform="translate(815 589)" fill="#185a69"/>
      <path id="Rectangle_604" data-name="Rectangle 604" d="M3,0H17a3,3,0,0,1,3,3v8a0,0,0,0,1,0,0H0a0,0,0,0,1,0,0V3A3,3,0,0,1,3,0Z" transform="translate(839 589)" fill="#185a69"/>
    </g>
  </g>
</svg>
